optimized/solid/chevron-double-down.svg

<svg xmlns="http://www.w3.org/2000/svg" viewBox="0 0 20 20" fill="currentColor" aria-hidden="true">
  <path fill-rule="evenodd" d="M15.7071 4.29289C16.0976 4.68342 16.0976 5.31658 15.7071 5.70711L10.7071 10.7071C10.3166 11.0976 9.68342 11.0976 9.29289 10.7071L4.29289 5.70711C3.90237 5.31658 3.90237 4.68342 4.29289 4.29289C4.68342 3.90237 5.31658 3.90237 5.70711 4.29289L10 8.58579L14.2929 4.29289C14.6834 3.90237 15.3166 3.90237 15.7071 4.29289ZM15.7071 10.2929C16.0976 10.6834 16.0976 11.3166 15.7071 11.7071L10.7071 16.7071C10.3166 17.0976 9.68342 17.0976 9.29289 16.7071L4.29289 11.7071C3.90237 11.3166 3.90237 10.6834 4.29289 10.2929C4.68342 9.90237 5.31658 9.90237 5.70711 10.2929L10 14.5858L14.2929 10.2929C14.6834 9.90237 15.3166 9.90237 15.7071 10.2929Z" clip-rule="evenodd"/>
</svg>

<svg xmlns="http://www.w3.org/2000/svg" viewBox="0 0 20 20" fill="currentColor" aria-hidden="true">
  <path fill-rule="evenodd" d="M15.707 4.293a1 1 0 010 1.414l-5 5a1 1 0 01-1.414 0l-5-5a1 1 0 011.414-1.414L10 8.586l4.293-4.293a1 1 0 011.414 0zm0 6a1 1 0 010 1.414l-5 5a1 1 0 01-1.414 0l-5-5a1 1 0 111.414-1.414L10 14.586l4.293-4.293a1 1 0 011.414 0z" clip-rule="evenodd"/>
</svg>
